src/components/Icon/svg-icon/twitter/like.svg

<svg xmlns="http://www.w3.org/2000/svg" xmlns:xlink="http://www.w3.org/1999/xlink" width="24" height="24" viewBox="0 0 24 24">
  <defs>
    <path id="like-a" d="M8.76402116,6.10996867 C7.31534392,6.10996867 6.04550265,7.58205478 6.04550265,9.25994056 C6.04550265,13.5086352 10.9439153,17.8427986 12,17.8900313 C13.0571429,17.8427986 17.9555556,13.5086352 17.9555556,9.25994056 C17.9555556,7.58205478 16.6846561,6.10996867 15.2359788,6.10996867 C13.4751323,6.10996867 12.4920635,8.28267331 12.4835979,8.30404049 C12.3227513,8.72013816 11.6772487,8.72013816 11.5174603,8.30404049 C11.5089947,8.28267331 10.5259259,6.10996867 8.76402116,6.10996867 L8.76402116,6.10996867 Z M12,19 L11.9904762,19 C10.1915344,18.9640132 5,13.9798377 5,9.25994056 C5,6.98939674 6.75873016,5 8.76402116,5 C10.3587302,5 11.431746,6.16957185 12,7.01976062 C12.568254,6.16957185 13.6412698,5 15.2359788,5 C17.2412698,5 19,6.98939674 19,9.25994056 C19,13.9798377 13.8095238,18.9640132 12.0095238,19 L12,19 Z"/>
  </defs>
  <use fill="#677078" xlink:href="#like-a"/>
</svg>

<svg xmlns="http://www.w3.org/2000/svg" xmlns:xlink="http://www.w3.org/1999/xlink" width="24" height="24"><defs><path id="a" d="M8.764 6.11c-1.449 0-2.718 1.472-2.718 3.15 0 4.249 4.898 8.583 5.954 8.63 1.057-.047 5.956-4.381 5.956-8.63 0-1.678-1.271-3.15-2.72-3.15-1.76 0-2.744 2.173-2.752 2.194-.161.416-.807.416-.967 0-.008-.021-.991-2.194-2.753-2.194zM12 19h-.01C10.192 18.964 5 13.98 5 9.26 5 6.99 6.759 5 8.764 5 10.359 5 11.432 6.17 12 7.02 12.568 6.17 13.641 5 15.236 5 17.241 5 19 6.99 19 9.26c0 4.72-5.19 9.704-6.99 9.74H12z"/></defs><use fill="#677078" xlink:href="#a"/></svg>
